data/icons/ui/ampoule-symbolic.svg

<?xml version="1.0" encoding="UTF-8" standalone="no"?>
<svg
   height="16"
   width="16"
   xml:space="preserve"
   version="1.1"
   id="svg2"
   sodipodi:docname="ampoule-symbolic.svg"
   inkscape:version="1.3 (0e150ed6c4, 2023-07-21)"
   xmlns:inkscape="http://www.inkscape.org/namespaces/inkscape"
   xmlns:sodipodi="http://sodipodi.sourceforge.net/DTD/sodipodi-0.dtd"
   xmlns="http://www.w3.org/2000/svg"
   xmlns:svg="http://www.w3.org/2000/svg"><defs
     id="defs2" /><sodipodi:namedview
     id="namedview2"
     pagecolor="#ffffff"
     bordercolor="#000000"
     borderopacity="0.25"
     inkscape:showpageshadow="2"
     inkscape:pageopacity="0.0"
     inkscape:pagecheckerboard="0"
     inkscape:deskcolor="#d1d1d1"
     inkscape:zoom="21.750001"
     inkscape:cx="1.2873563"
     inkscape:cy="9.4022984"
     inkscape:window-width="1920"
     inkscape:window-height="1011"
     inkscape:window-x="0"
     inkscape:window-y="0"
     inkscape:window-maximized="1"
     inkscape:current-layer="svg2" /><path
     style="color:#000000;fill:#000000;stroke-linecap:square;-inkscape-stroke:none"
     d="M 14.551473,1.7235449 C 14.227005,1.3990774 13.883554,1.225076 13.447999,1.1006833 13.012445,0.97629047 12.385976,0.88221967 11.808672,1.3589429 L 9.1469608,3.495828 8.9080362,3.836952 8.9011262,3.846622 C 8.5142785,4.4273737 8.3504769,4.5157693 8.2713637,4.5509639 8.1922504,4.5861585 7.9488289,4.5928703 7.4399608,4.7498376 L 7.2037982,4.8230346 1.7209743,10.305878 c -0.6251669,0.625169 -0.77133454,1.459577 -0.707107,2.182087 0.064228,0.72251 0.3108041,1.401847 0.8410706,1.932114 0.5302666,0.530267 1.2096034,0.776843 1.9321138,0.841071 0.7225105,0.06423 1.5569192,-0.08194 2.1820879,-0.707107 l 5.4828234,-5.4828432 0.0732,-0.2361629 c 0.156967,-0.5088678 0.163679,-0.7522893 0.198874,-0.8314025 0.03519,-0.079114 0.12359,-0.2429153 0.704344,-0.6297672 l 0.0097,-0.00691 0.341127,-0.2389216 2.136905,-2.661691 -3.5e-5,-0.00279 C 15.390601,3.8869282 15.298558,3.2619809 15.174334,2.8270182 15.049941,2.3914634 14.87594,2.0480123 14.551473,1.7235449 Z M 13.13864,3.1363775 c -0.05322,0 0.06661,0.1153225 0.106342,0.2195896 L 11.400863,5.653056 11.300045,5.723491 11.320765,5.711062 C 10.580246,6.2043325 10.128414,6.674211 9.8982616,7.1915657 9.7166541,7.5997976 9.7119143,7.8135863 9.6745286,8.0229687 L 4.5563067,13.14121 C 4.4843657,13.21315 4.2696809,13.298097 3.9652095,13.271031 3.6607378,13.243961 3.3362005,13.075678 3.2677699,13.007247 3.1993399,12.938817 3.0310526,12.614279 3.0039861,12.309808 2.9769201,12.005336 3.0618651,11.790652 3.1338068,11.71871 L 8.2520287,6.6004687 c 0.2093824,-0.037386 0.4231709,-0.042126 0.8314029,-0.223733 0.517355,-0.2301524 0.9872334,-0.6819853 1.4805044,-1.4225 l 0.05801,-0.080102 2.297109,-1.8440986 c 0.104267,0.039731 0.272811,0.1063424 0.21959,0.1063424 z"
     id="path6"
     sodipodi:nodetypes="ssccccsccsssscccccccccsssccccsccsssccscccss" /></svg>

<svg xmlns="http://www.w3.org/2000/svg" xml:space="preserve" width="16" height="16"><path d="M14.551 1.724c-.324-.325-.667-.499-1.103-.623-.436-.125-1.062-.219-1.64.258l-2.66 2.137-.239.341-.007.01c-.387.58-.55.669-.63.704s-.322.042-.831.199l-.236.073-5.483 5.483c-.625.625-.771 1.46-.707 2.182s.31 1.402.84 1.932c.531.53 1.21.777 1.933.841s1.557-.082 2.182-.707l5.483-5.483.073-.236c.157-.509.164-.752.199-.831.035-.08.124-.243.704-.63l.01-.007.341-.239 2.137-2.662v-.002c.475-.577.383-1.202.258-1.637-.124-.436-.298-.779-.623-1.103ZM13.14 3.136c-.054 0 .066.116.106.22l-1.844 2.297-.101.07.02-.012c-.74.493-1.192.963-1.422 1.48-.181.409-.186.623-.223.832l-5.119 5.118c-.072.072-.286.157-.59.13-.305-.027-.63-.195-.698-.264-.069-.068-.237-.393-.264-.697-.027-.305.058-.52.13-.591L8.252 6.6c.21-.037.423-.042.831-.223.518-.23.988-.682 1.48-1.423l.059-.08 2.297-1.844c.104.04.273.106.22.106z" style="color:#000;fill:#000;stroke-linecap:square;-inkscape-stroke:none"/></svg>
